packages/bezier-icons/icons/email-unread.svg

<svg width="24" height="24" viewBox="0 0 24 24" fill="none" xmlns="http://www.w3.org/2000/svg">
<path fill-rule="evenodd" clip-rule="evenodd" d="M15.6 4C16.4169 4 17.0849 4 17.6454 4.02114C17.0176 4.53687 16.5319 5.21921 16.2559 6.00056C16.0529 6.00006 15.8349 6 15.6 6H8.40003C7.24692 6 6.50238 6.00156 5.9357 6.04785C5.39238 6.09225 5.19094 6.1676 5.09205 6.21799C4.71573 6.40973 4.40976 6.71569 4.21802 7.09202C4.16763 7.19091 4.09228 7.39235 4.04789 7.93567C4.02594 8.20423 4.01405 8.51274 4.00761 8.88575L11.5528 12.6584C11.8344 12.7991 12.1657 12.7991 12.4473 12.6584L17.031 10.3665C17.5133 10.9495 18.1398 11.409 18.8558 11.6902L13.3417 14.4472C12.4971 14.8695 11.503 14.8695 10.6584 14.4472L4.00003 11.118V13.6C4.00003 14.7531 4.00159 15.4977 4.04789 16.0643C4.09228 16.6077 4.16763 16.8091 4.21802 16.908C4.40976 17.2843 4.71573 17.5903 5.09205 17.782C5.19094 17.8324 5.39238 17.9078 5.9357 17.9521C6.50238 17.9984 7.24692 18 8.40003 18H15.6C16.7531 18 17.4977 17.9984 18.0644 17.9521C18.6077 17.9078 18.8091 17.8324 18.908 17.782C19.2843 17.5903 19.5903 17.2843 19.782 16.908C19.8324 16.8091 19.9078 16.6077 19.9522 16.0643C19.9985 15.4977 20 14.7531 20 13.6V11.9725C20.1642 11.9907 20.331 12 20.5 12C21.026 12 21.5309 11.9098 22 11.7439V13.6C22 15.8402 22 16.9603 21.5641 17.816C21.1806 18.5686 20.5686 19.1805 19.816 19.564C18.9603 20 17.8402 20 15.6 20H8.40003C6.15982 20 5.03972 20 4.18407 19.564C3.43142 19.1805 2.8195 18.5686 2.436 17.816C2.00003 16.9603 2.00003 15.8402 2.00003 13.6V10.4C2.00003 10.0969 2.00003 9.81424 2.00111 9.55C1.99923 9.51318 1.99939 9.47614 2.00164 9.43906C2.01043 7.82012 2.06736 6.90754 2.436 6.18404C2.8195 5.43139 3.43142 4.81947 4.18407 4.43597C5.03972 4 6.15982 4 8.40003 4H15.6ZM20.5 10C21.8807 10 23 8.88071 23 7.5C23 6.11929 21.8807 5 20.5 5C19.1193 5 18 6.11929 18 7.5C18 8.88071 19.1193 10 20.5 10Z" fill="#313234"/>
</svg>

<svg xmlns="http://www.w3.org/2000/svg" width="24" height="24" fill="none" viewBox="0 0 24 24"><path fill="#313234" fill-rule="evenodd" d="M15.6 4c.817 0 1.485 0 2.045.021a4.5 4.5 0 0 0-1.39 1.98L15.6 6H8.4c-1.153 0-1.898.002-2.464.048-.544.044-.745.12-.844.17a2 2 0 0 0-.874.874c-.05.099-.126.3-.17.844-.022.268-.034.577-.04.95l7.545 3.772a1 1 0 0 0 .894 0l4.584-2.291a4.5 4.5 0 0 0 1.825 1.323l-5.514 2.757a3 3 0 0 1-2.684 0L4 11.118V13.6c0 1.153.002 1.898.048 2.464.044.544.12.745.17.844a2 2 0 0 0 .874.874c.099.05.3.126.844.17.566.046 1.31.048 2.464.048h7.2c1.153 0 1.898-.002 2.464-.048.544-.044.745-.12.844-.17a2 2 0 0 0 .874-.874c.05-.099.126-.3.17-.844.046-.566.048-1.31.048-2.464v-1.627a4.5 4.5 0 0 0 2-.23V13.6c0 2.24 0 3.36-.436 4.216a4 4 0 0 1-1.748 1.748C18.96 20 17.84 20 15.6 20H8.4c-2.24 0-3.36 0-4.216-.436a4 4 0 0 1-1.748-1.748C2 16.96 2 15.84 2 13.6v-3.2l.002-.96c.008-1.62.065-2.532.434-3.256a4 4 0 0 1 1.748-1.748C5.04 4 6.16 4 8.4 4zm4.9 6a2.5 2.5 0 1 0 0-5 2.5 2.5 0 0 0 0 5" clip-rule="evenodd"/></svg>
